images/laptop.svg

<svg xmlns="http://www.w3.org/2000/svg" width="24" height="24" viewBox="0 0 24 24"><path d="M22 1h-20v14h20v-14zm-2 12h-16v-10h16v10zm2 3h-20l-2 7h24l-2-7zm-12.228 6l.466-2h3.524l.466 2h-4.456z"/></svg>

<?xml version="1.0" encoding="utf-8"?>
<!-- Generator: Adobe Illustrator 23.0.1, SVG Export Plug-In . SVG Version: 6.00 Build 0)  -->
<svg version="1.1" id="Layer_1" xmlns="http://www.w3.org/2000/svg" xmlns:xlink="http://www.w3.org/1999/xlink" x="0px" y="0px"
	 viewBox="0 0 24 24" style="enable-background:new 0 0 24 24;" xml:space="preserve">
<style type="text/css">
	.st0{fill:#23223B;}
</style>
<path class="st0" d="M22,1H2v14h20V1z M20,13H4V3h16V13z M22,16H2l-2,7h24L22,16z M9.8,22l0.5-2h3.5l0.5,2C14.2,22,9.8,22,9.8,22z"
	/>
</svg>
